X:4518
T:My Love is But a Lassie Yet
O:england
C: Trad
M:4/4
L:1/8
Q:1/4=141
K:D
d/2c/2|:dDFA dDD d/2c/2|dDFA eEE  d/2c/2|
dDFA Bgfe|1 d/2c/2B/2A/2 B/2c/2d/2e/2 fdd d/2c/2 \
:|2 d/2c/2B/2A/2 B/2c/2d/2e/2 fdd f/2g/2
|:afge fdd  f/2g/2| afga bee f/2g/2|
afge fded|1 d/2c/2B/2A/2 B/2c/2d/2e/2 fdd f/2g/2 \
:|2 d/2c/2B/2A/2 B/2c/2d/2e/2 fdd z ||


